X: 56
M:6/8
L:1/8
K:F
|:Add dcd|efe dcB|Add dfa|gee e2 A|
|:DFF AFF|dFF AFF|DFF AFF|GEE E3|
|:Add dcd|cBA AFA|Add dcd|ecA Acd|
fdd ecc|dcB AFA|BAB cAG|FDD D2z:||

